packages/foundations/assets/icons/functional/images/environment/snow_flake_20.svg

<svg width="20" height="20" viewBox="0 0 20 20" fill="none" xmlns="http://www.w3.org/2000/svg">
<g clip-path="url(#clip0_185_843)">
<path fill-rule="evenodd" clip-rule="evenodd" d="M10.0042 2.25C10.3839 2.25 10.7557 2.55516 10.7474 3L10.7534 4.189L11.4739 3.46967C11.7402 3.2034 12.2024 3.16096 12.5012 3.43269C12.8 3.70442 12.8691 4.15195 12.5346 4.53033L10.7534 6.31V8.701L13.0074 7.4L13.6105 5.1515C13.7177 4.7514 14.1289 4.51396 14.529 4.62117C14.8928 4.71863 15.1741 5.06964 15.0594 5.53973L14.8444 6.339L15.6914 5.85048C16.0501 5.64337 16.5088 5.76628 16.7159 6.125C16.9058 6.45383 16.8271 6.91716 16.4414 7.14952L15.3624 7.772L16.529 8.08527C16.9225 8.17296 17.16 8.60277 17.0594 9.00383C16.9588 9.40489 16.6019 9.64571 16.1408 9.53416L13.5244 8.833L11.5044 9.999L13.8924 11.378L16.1408 10.7765C16.5409 10.6693 16.9522 10.9067 17.0594 11.3068C17.1568 11.6706 16.9573 12.1105 16.529 12.2254L15.7294 12.439L16.4414 12.8505C16.8001 13.0576 16.9231 13.5163 16.7159 13.875C16.5261 14.2038 16.0987 14.3751 15.6914 14.1495L14.7464 13.603L15.0594 14.7709C15.1568 15.1347 14.9557 15.5663 14.581 15.6895C14.2064 15.8127 13.7515 15.6097 13.6105 15.1592L12.9084 12.542L10.7534 11.298V14L12.5346 15.7803C12.8275 16.0732 12.8275 16.5481 12.5346 16.841C12.2683 17.1073 11.8132 17.1507 11.5044 16.8803L10.7534 16.12L10.7542 17C10.7542 17.4142 10.4185 17.75 10.0042 17.75C9.62455 17.75 9.25425 17.4598 9.25339 17V16.121L8.53458 16.841C8.21861 17.1554 7.74373 17.1073 7.47392 16.841C7.20411 16.5747 7.1631 16.121 7.47392 15.7803L9.25339 14V11.299L7.09839 12.543L6.39802 15.1592C6.29082 15.5593 5.87956 15.7967 5.47946 15.6895C5.11574 15.592 4.83437 15.1945 4.92726 14.8096L5.26139 13.604L4.31707 14.1495C3.95835 14.3566 3.49966 14.2337 3.29255 13.875C3.1027 13.5462 3.162 13.0954 3.52538 12.8843L4.27839 12.439L3.47946 12.2254C3.11574 12.1279 2.81424 11.729 2.94913 11.3068C3.08402 10.8847 3.45816 10.6817 3.86769 10.7765L6.11539 11.378L8.50439 9.999L6.48339 8.832L3.86769 9.53416C3.46759 9.64137 3.04537 9.38701 2.94913 9.00383C2.85289 8.62065 3.04537 8.19698 3.44611 8.08527L4.64639 7.772L3.56707 7.14952C3.20835 6.94241 3.08545 6.48372 3.29255 6.125C3.4824 5.79617 3.92574 5.63609 4.31707 5.85048L5.16239 6.338L4.94913 5.53973C4.85167 5.176 5.01 4.73683 5.45253 4.62117C5.89507 4.50551 6.27786 4.73683 6.39802 5.1515L6.99939 7.399L9.25339 8.7V6.31L7.47392 4.53033C7.18103 4.23744 7.18103 3.76256 7.47392 3.46967C7.74019 3.2034 8.19672 3.16341 8.50439 3.43269L9.25339 4.188L9.25425 3C9.25425 2.58579 9.59004 2.25 10.0042 2.25Z" fill="#1A1C1F"/>
</g>
<defs>
<clipPath id="clip0_185_843">
<rect width="20" height="20" fill="white"/>
</clipPath>
</defs>
</svg>

<svg xmlns="http://www.w3.org/2000/svg" width="20" height="20" fill="none"><g clip-path="url(#a)"><path fill="#1A1C1F" fill-rule="evenodd" d="M10.004 2.25c.38 0 .752.305.743.75l.006 1.189.72-.72c.267-.266.73-.308 1.028-.036.299.271.368.719.034 1.097l-1.782 1.78v2.391L13.007 7.4l.604-2.248a.75.75 0 0 1 .918-.53.735.735 0 0 1 .53.918l-.215.799.847-.489a.75.75 0 1 1 .75 1.3l-1.079.622 1.167.313c.393.088.631.518.53.919-.1.4-.457.642-.918.53l-2.617-.701-2.02 1.166 2.388 1.379 2.249-.601a.75.75 0 1 1 .388 1.448l-.8.214.712.412a.75.75 0 0 1 .275 1.024.744.744 0 0 1-1.025.274l-.945-.546.313 1.168c.098.364-.103.795-.478.918a.777.777 0 0 1-.97-.53l-.703-2.617-2.155-1.244V14l1.782 1.78a.75.75 0 0 1 0 1.061.76.76 0 0 1-1.03.04l-.752-.761.001.88a.75.75 0 0 1-.75.75c-.38 0-.75-.29-.75-.75v-.879l-.72.72a.754.754 0 0 1-1.06 0c-.27-.266-.31-.72 0-1.06L9.254 14v-2.701l-2.156 1.244-.7 2.616a.75.75 0 0 1-.919.53c-.363-.097-.645-.495-.552-.88l.334-1.205-.944.546a.75.75 0 0 1-1.024-.275c-.19-.329-.131-.78.232-.99l.753-.446-.799-.214c-.363-.097-.665-.496-.53-.918s.51-.625.919-.53l2.247.601 2.39-1.379-2.022-1.167-2.615.702a.76.76 0 0 1-.919-.53c-.096-.383.096-.807.497-.919l1.2-.313-1.079-.622a.75.75 0 0 1-.274-1.025.76.76 0 0 1 1.024-.275l.845.488-.213-.798c-.097-.364.061-.803.504-.919.442-.115.825.116.945.53L6.999 7.4 9.253 8.7V6.31l-1.78-1.78a.75.75 0 0 1 0-1.06.76.76 0 0 1 1.031-.037l.75.755V3a.75.75 0 0 1 .75-.75" clip-rule="evenodd"/></g><defs><clipPath id="a"><path fill="#fff" d="M0 0h20v20H0z"/></clipPath></defs></svg>
